assets/symbols/mulberry/fireplace.svg

<svg height="850.394" viewBox="0 0 850.394 850.394" width="850.394" xmlns="http://www.w3.org/2000/svg"><path d="m525.7 612.15v44.24h-201.4v-44.24h125.83z" fill="#231f20"/><path d="m493.15 538.82s12.02-10.87.569 30.35c-3.8 13.66-25.41 24.4-35.45 33.771-2.329 2.159-5.21 3.689-8.14 5.149v4.061h-52.92v-3.49c-2.92-1.45-5.81-2.98-8.14-5.15-10.04-9.359-30.85-24.479-34.65-38.14-11.44-41.22.58-30.34.58-30.34s27.33 28.76 27.33 7.01c0-21.76-25.18-26.91-12.59-54.96 12.59-28.04 11.45-9.72 11.45-9.72s-10.31 18.31 0 28.62c10.3 10.3 18.31 8.02 26.32 16.02 2.81 2.81-2.41-8.06-6.08-22.08l-.52-5.16c-7.96-28.569 18.03-61.62 22.61-66.2 4.57-4.58 16.89-16.89 14.02-7.729-2.86 9.16-8.87 19.18 4.58 32.63 19.1 19.1-7.95 88.17-2.29 82.51 8.01-8.02 16.03-5.729 26.34-16.029 10.29-10.311 0-28.62 0-28.62s-1.15-18.32 11.44 9.729c12.59 28.05-12.591 33.2-12.591 54.95.002 21.738 28.132-17.182 28.132-17.182z" fill="#faa41a"/><path d="m525.7 392.43v219.72h-75.57v-4.061c2.93-1.46 5.811-2.99 8.14-5.149 10.04-9.37 31.65-20.11 35.45-33.771 11.45-41.22-.569-30.35-.569-30.35s-28.131 38.921-28.131 17.181c0-21.75 25.181-26.9 12.591-54.95-12.591-28.05-11.44-9.729-11.44-9.729s10.29 18.31 0 28.62c-10.31 10.3-18.33 8.01-26.34 16.029-5.66 5.66 21.39-63.41 2.29-82.51-13.45-13.45-7.44-23.47-4.58-32.63 2.87-9.16-9.45 3.15-14.02 7.729-4.58 4.58-30.57 37.631-22.61 66.2l.52 5.16c3.67 14.021 8.89 24.89 6.08 22.08-8.01-8-16.02-5.72-26.32-16.02-10.31-10.311 0-28.62 0-28.62s1.14-18.32-11.45 9.72c-12.59 28.05 12.59 33.2 12.59 54.96 0 21.75-27.33-7.01-27.33-7.01s-12.02-10.88-.58 30.34c3.8 13.66 24.61 28.78 34.65 38.14 2.33 2.17 5.22 3.7 8.14 5.15v3.49h-72.911v-219.719z" fill="#c8c8c8"/><path d="m424.66 662.5v-.05h196.83l83.75 8.97-.02.23 38.15 44.25h-638.79l38.15-44.25 85.44-9.15z" fill="#fff5b4"/><path d="m424.99 259.69v-.04c4.49.12 53.399 1.71 98.85 13.72 58.36 15.42 88.5 28.99 97.65 94.6v294.481h-196.83v.05h-196.49v-294.481c9.16-65.61 39.29-79.18 97.65-94.6 47.27-12.49 98.25-13.71 99.17-13.73zm100.71 396.7v-263.96h-201.4v263.959h201.4z" fill="#fff5b4"/><path d="m424.99 259.65v.04c-.92.02-51.9 1.24-99.17 13.73-58.36 15.42-88.49 28.99-97.65 94.6v294.48l-85.44 9.15v-485.2h281.93v-.05h282.27v485.2l-1.689-.18-83.75-8.97v-294.48c-9.15-65.61-39.29-79.18-97.65-94.6-45.451-12.01-94.361-13.6-98.851-13.72zm-330.32-123.55h660.66v45.77h-660.66z" fill="#9c5c25"/><g fill="none"><g stroke="#231f20"><g stroke-width="21"><path d="m525.7 612.15v44.24h-201.4v-263.96h201.4zm-201.4 0h201.4"/><path d="m425 259.69h-.01c-.92.02-51.9 1.24-99.17 13.73-58.36 15.42-88.49 28.99-97.65 94.6v294.48l-85.44 9.15v-292.95"/><path d="m142.73 378.7v-192.25h282.27m-330.33-50.35h660.66v45.77h-660.66zm133.5 526.4h196.83m-.34-402.86s.11 0 .33.01c4.49.12 53.399 1.71 98.85 13.72 58.36 15.42 88.5 28.99 97.65 94.6v294.481l83.75 8.97 1.689.18v-292.951"/><path d="m706.93 378.65v-192.25h-282.27m196.83 476.05h-196.83"/></g><path d="m397.21 608.66c-2.92-1.45-5.81-2.98-8.14-5.15-10.04-9.359-30.85-24.479-34.65-38.14-11.44-41.22.58-30.34.58-30.34s27.33 28.76 27.33 7.01c0-21.76-25.18-26.91-12.59-54.96 12.59-28.04 11.45-9.72 11.45-9.72s-10.31 18.31 0 28.62c10.3 10.3 18.31 8.02 26.32 16.02 2.81 2.81-2.41-8.06-6.08-22.08l-.52-5.16c-7.96-28.569 18.03-61.62 22.61-66.2 4.57-4.58 16.89-16.89 14.02-7.729-2.86 9.16-8.87 19.18 4.58 32.63 19.1 19.1-7.95 88.17-2.29 82.51 8.01-8.02 16.03-5.729 26.34-16.029 10.29-10.311 0-28.62 0-28.62s-1.15-18.32 11.44 9.729c12.59 28.05-12.591 33.2-12.591 54.95 0 21.74 28.131-17.18 28.131-17.18s12.02-10.87.569 30.35c-3.8 13.66-25.41 24.4-35.45 33.771-2.329 2.159-5.21 3.689-8.14 5.149" stroke-width="14"/><path d="m142.73 671.65-38.15 44.25h317.37m283.27-44.25 38.15 44.25h-317.36" stroke-width="21"/></g><path d="m0 0h850.394v850.394h-850.394z"/></g></svg>

<svg xmlns="http://www.w3.org/2000/svg" width="850.394" height="850.394" viewBox="0 0 850.394 850.394" overflow="visible"><path fill="#231f20" d="M525.7 612.15v44.24H324.3v-44.24h125.83z"/><path d="M493.15 538.82s12.02-10.87.569 30.35c-3.8 13.66-25.41 24.4-35.45 33.771-2.329 2.159-5.21 3.689-8.14 5.149v4.061h-52.92v-3.49c-2.92-1.45-5.81-2.98-8.14-5.15-10.04-9.359-30.85-24.479-34.65-38.14-11.44-41.22.58-30.34.58-30.34s27.33 28.76 27.33 7.01c0-21.76-25.18-26.91-12.59-54.96 12.59-28.04 11.45-9.72 11.45-9.72s-10.31 18.31 0 28.62c10.3 10.3 18.31 8.02 26.32 16.02 2.81 2.81-2.41-8.06-6.08-22.08l-.52-5.16c-7.96-28.569 18.03-61.62 22.61-66.2 4.57-4.58 16.89-16.89 14.02-7.729-2.86 9.16-8.87 19.18 4.58 32.63 19.1 19.1-7.95 88.17-2.29 82.51 8.01-8.02 16.03-5.729 26.34-16.029 10.29-10.311 0-28.62 0-28.62s-1.15-18.32 11.44 9.729c12.59 28.05-12.591 33.2-12.591 54.95.002 21.738 28.132-17.182 28.132-17.182z" fill="#faa41a"/><path d="M525.7 392.43v219.72h-75.57v-4.061c2.93-1.46 5.811-2.99 8.14-5.149 10.04-9.37 31.65-20.11 35.45-33.771 11.45-41.22-.569-30.35-.569-30.35S465.02 577.74 465.02 556c0-21.75 25.181-26.9 12.591-54.95-12.591-28.05-11.44-9.729-11.44-9.729s10.29 18.31 0 28.62c-10.31 10.3-18.33 8.01-26.34 16.029-5.66 5.66 21.39-63.41 2.29-82.51-13.45-13.45-7.44-23.47-4.58-32.63 2.87-9.16-9.45 3.15-14.02 7.729-4.58 4.58-30.57 37.631-22.61 66.2l.52 5.16c3.67 14.021 8.89 24.89 6.08 22.08-8.01-8-16.02-5.72-26.32-16.02-10.31-10.311 0-28.62 0-28.62s1.14-18.32-11.45 9.72c-12.59 28.05 12.59 33.2 12.59 54.96 0 21.75-27.33-7.01-27.33-7.01s-12.02-10.88-.58 30.34c3.8 13.66 24.61 28.78 34.65 38.14 2.33 2.17 5.22 3.7 8.14 5.15v3.49H324.3V392.43h201.4z" fill="#c8c8c8"/><path fill="#fff5b4" d="M424.66 662.5v-.05h196.83l83.75 8.97-.02.23 38.15 44.25H104.58l38.15-44.25 85.44-9.15z"/><path d="M424.99 259.69v-.04c4.49.12 53.399 1.71 98.85 13.72 58.36 15.42 88.5 28.99 97.65 94.6v294.481H424.66v.05H228.17V368.02c9.16-65.61 39.29-79.18 97.65-94.6 47.27-12.49 98.25-13.71 99.17-13.73zm100.71 396.7V392.43H324.3v263.959h201.4z" fill="#fff5b4"/><path d="M424.99 259.65v.04c-.92.02-51.9 1.24-99.17 13.73-58.36 15.42-88.49 28.99-97.65 94.6V662.5l-85.44 9.15v-485.2h281.93v-.05h282.27v485.2l-1.689-.18-83.75-8.97V367.97c-9.15-65.61-39.29-79.18-97.65-94.6-45.451-12.01-94.361-13.6-98.851-13.72zM94.67 136.1h660.66v45.77H94.67z" fill="#9c5c25"/><g fill="none" stroke="#231f20"><path stroke-width="21" d="M525.7 612.15v44.24H324.3V392.43h201.4zM324.3 612.15H525.7"/><path d="M425 259.69h-.01c-.92.02-51.9 1.24-99.17 13.73-58.36 15.42-88.49 28.99-97.65 94.6V662.5l-85.44 9.15V378.7" stroke-width="21"/><path stroke-width="21" d="M142.73 378.7V186.45H425M94.67 136.1h660.66v45.77H94.67zM228.17 662.5H425M424.66 259.64s.11 0 .33.01c4.49.12 53.399 1.71 98.85 13.72 58.36 15.42 88.5 28.99 97.65 94.6v294.481l83.75 8.97 1.689.18V378.65"/><path stroke-width="21" d="M706.93 378.65V186.4H424.66M621.49 662.45H424.66"/><path d="M397.21 608.66c-2.92-1.45-5.81-2.98-8.14-5.15-10.04-9.359-30.85-24.479-34.65-38.14-11.44-41.22.58-30.34.58-30.34s27.33 28.76 27.33 7.01c0-21.76-25.18-26.91-12.59-54.96 12.59-28.04 11.45-9.72 11.45-9.72s-10.31 18.31 0 28.62c10.3 10.3 18.31 8.02 26.32 16.02 2.81 2.81-2.41-8.06-6.08-22.08l-.52-5.16c-7.96-28.569 18.03-61.62 22.61-66.2 4.57-4.58 16.89-16.89 14.02-7.729-2.86 9.16-8.87 19.18 4.58 32.63 19.1 19.1-7.95 88.17-2.29 82.51 8.01-8.02 16.03-5.729 26.34-16.029 10.29-10.311 0-28.62 0-28.62s-1.15-18.32 11.44 9.729c12.59 28.05-12.591 33.2-12.591 54.95 0 21.74 28.131-17.18 28.131-17.18s12.02-10.87.569 30.35c-3.8 13.66-25.41 24.4-35.45 33.771-2.329 2.159-5.21 3.689-8.14 5.149" stroke-width="14"/><path stroke-width="21" d="M142.73 671.65l-38.15 44.25h317.37M705.22 671.65l38.15 44.25H426.01"/></g><path fill="none" d="M0 0h850.394v850.394H0z"/></svg>
